libs/ui/packages/crypto-icons/src/svg/BURST.svg

<svg width="24" height="24" viewBox="0 0 24 24" fill="none">
<path d="M10.2794 14.472L4.49994 12.5775H8.36619L8.74869 10.7452L12.1822 10.7475L13.0387 6H16.4932C18.8317 6 19.7797 6.94125 19.4294 8.88375L19.3544 9.3C19.1497 10.4317 18.6329 11.184 17.7449 11.6182C18.6247 12.0683 18.9202 12.9195 18.6989 14.1458L18.5279 15.0953C18.1859 16.9898 16.7924 18 14.5289 18H10.8727L11.8199 12.7552H10.6724L10.2794 14.472ZM14.0789 12.4117L13.3709 16.3342H14.8297C15.6952 16.3342 16.1759 15.9502 16.3394 15.0443L16.5232 14.0295C16.7317 12.8722 16.3312 12.4117 15.1964 12.4117H14.0789ZM14.9362 7.665L14.3182 11.088H15.3772C16.3432 11.088 16.9079 10.6755 17.0812 9.7155L17.1989 9.066C17.3677 8.13075 17.0182 7.665 16.1324 7.665H15.0749H14.9362Z" fill="#2D2D2D"/>
</svg>

<svg width="24" height="24" viewBox="0 0 24 24" fill="none"><path fill="#2d2d2d" d="M10.28 14.472 4.5 12.578h3.866l.383-1.833 3.433.003L13.04 6h3.454c2.339 0 3.287.941 2.936 2.884l-.075.416c-.204 1.132-.721 1.884-1.61 2.318.88.45 1.176 1.301.955 2.528l-.171.95c-.342 1.894-1.736 2.904-4 2.904h-3.655l.947-5.245h-1.148zm3.799-2.06-.708 3.922h1.459c.865 0 1.346-.384 1.51-1.29l.183-1.014c.209-1.158-.192-1.618-1.327-1.618zm.857-4.747-.618 3.423h1.06c.965 0 1.53-.412 1.703-1.372l.118-.65c.169-.935-.18-1.401-1.067-1.401z"/></svg>
